X:1
T:Title
%%score 1 2
L:1/8
Q:1/4=80
M:3/4
K:Eb
V:1 treble nm="Strings 1, Treble"
V:2 bass nm="Strings 1, Bass"
V:1
 z2 z2 [EG][FA] | [GB]3 [EG] [EA][GB] | [Ac] [Ae]3 [EG][B,F] | [B,E]3 [EG] [GB][Ac] | %4
w: 1.~See~ the~|cross,~ the~ cross~ of~|Je sus,~ Crim son~|with~ His~ own~ life's~|
 [GB]4 [EG][FA] | [GB]3 [EG] [EA][GB] | [Ac] [Ae]3 E[Ec] | [EB]3 [EG] E[DF] | E4 [GB][GB] | %9
w: blood;~ Thus~ He~|died,~ lest~ we~ should~|per ish,~ Won drous~|love!~ Thou~ Son~ of~|God.~ * *|
 [Ge]3 [EB] [EG][GB] | [Ac] [GB]3 E[EG] | [GB]3 [EG] E[EG] | [DF]4 [EG][FA] | [GB]3 [EG] [EA][GB] | %14
w: |||||
 [Ac] [Ae]3 E[Ec] | [EB]3 [EG] E[DF] | E4 z2 |] %17
w: |||
V:2
 z2 z2 [E,B,][E,B,] | [E,E]3 [E,B,] [E,C][E,E] | [A,E] [A,C]3 [E,B,][E,A,] | %3
 [E,G,]3 [E,B,] [E,E][E,E] | [E,E]4 [E,B,][E,B,] | [E,E]3 [E,B,] [E,C][E,E] | %6
 [A,E] [A,C]3 [A,,A,][A,,A,] | [B,,G,]3 [B,,B,] [B,,G,][B,,A,] | [E,G,]4 [E,B,][E,B,] | %9
 [E,B,]3 [E,G,] [E,B,][E,E] | [E,E] [E,E]3 [E,G,][E,B,] | [E,E]3 [E,B,] [G,B,][E,B,] | %12
 [B,,B,]4 [E,B,][E,B,] | [E,E]3 [E,B,] [E,C][E,E] | [A,E] [A,C]3 [A,,A,][A,,A,] | %15
 [B,,G,]3 [B,,B,] [B,,G,][B,,A,] | [E,G,]4 z2 |] %17

